X: 12
T: Factor orbis / Veni domine
N: Derived from Obr2010-Factor_orbis__Veni_domine.krn
C: Jacob Obrecht
%%abc-version 2.0
%%abcx-abcm2ps-target-version 5.9.1 (29 Sep 2008)
%%abc-creator hum2abc beta
%%abcx-conversion-date 2019/02/17 07:23:44
%%abc-edited-by Jesse Rodin
%%abc-edited-by Jesse Rodin 06/05/2005
%%abcx-initial-encoding-date 2012/11/11/
%%humdrum-veritas 812078214
%%humdrum-veritas-data 4162841221
%%linebreak <none>
%%barnumbers 0
L: 1/4
M: 3/1
Q: 1/2=120
V: 1 clef=treble
V: 2 clef=treble-8
V: 3 clef=treble-8
V: 4 clef=treble-8
V: 5 clef=bass
K: C
[V:1] z12 | 
[V:2] A4A4G4 | 
[V:3] z12 | 
[V:4] z12 | 
[V:5] z12 | 
[V:1] A4A4G4 | 
[V:2] A2A2A4B4 | 
[V:3] z12 | 
[V:4] z12 | 
[V:5] z12 | 
[V:1] A2A2A4B4 | 
[V:2] c4A4G4 | 
[V:3] z12 | 
[V:4] z12 | 
[V:5] z12 | 
[V:1] c4A4G4 | 
[V:2] z2A3Bcde2E2 | 
[V:3] z12 | 
[V:4] z12 | 
[V:5] z12 | 
[V:1] z2E2G4E4 | 
[V:2] G4E4z2G2 | 
[V:3] z12 | 
[V:4] z12 | 
[V:5] z12 | 
[V:1] z2G2E2G2z2A2- | 
[V:2] E2G2z2c2A2c2 | 
[V:3] z12 | 
[V:4] z12 | 
[V:5] z12 | 
[V:1] A2c4F4ED | 
[V:2] z2e2c2d4B2 | 
[V:3] z12 | 
[V:4] z12 | 
[V:5] z12 | 
[V:1] E4D4z2D2 | 
[V:2] ^c4d8 | 
[V:3] z12 | 
[V:4] z12 | 
[V:5] z12 | 
[V:1] D2D2A8 | 
[V:2] z4z2A2A2A2 | 
[V:3] z12 | 
[V:4] z12 | 
[V:5] z12 | 
[V:1] G4F4z2G2 | 
[V:2] e4d4c2B2 | 
[V:3] z12 | 
[V:4] z12 | 
[V:5] z12 | 
[V:1] G2F2G4E4 | 
[V:2] A4G4z2A2 | 
[V:3] z12 | 
[V:4] z12 | 
[V:5] z12 | 
[V:1] D4z2F3ED2 | 
[V:2] _B3A/G/F2D2F2G2 | 
[V:3] z12 | 
[V:4] z12 | 
[V:5] z12 | 
[V:1] C2F4E4D2 | 
[V:2] A4E4F4 | 
[V:3] z12 | 
[V:4] z4G4A4 | 
[V:5] z12 | 
[V:1] E4z4z4 | 
[V:2] E4z4e4 | 
[V:3] z12 | 
[V:4] B2c2A2d4^c2 | 
[V:5] G,4F,2D,2E,2E,2 | 
[V:1] A4A2A2A4 | 
[V:2] f6ede2d2- | 
[V:3] z12 | 
[V:4] d4z2d2c2d2 | 
[V:5] D,8z4 | 
[V:1] z2A2F2G2A2A2 | 
[V:2] d2c2d4e4 | 
[V:3] z12 | 
[V:4] e4z2d4c2 | 
[V:5] A,,4B,,2B,,2A,,4 | 
[V:1] A2A2_B2B2A4- | 
[V:2] f4g4f4 | 
[V:3] z12 | 
[V:4] d4d4d4 | 
[V:5] z2D,2G,2G,2D,4 | 
[V:1] A4z4z4 | 
[V:2] e2f4d4g2- | 
[V:3] z12 | 
[V:4] A4d4B4 | 
[V:5] z2D,4G,4E,2- | 
[V:1] z12 | 
[V:2] g2c4d4^c2 | 
[V:3] z12 | 
[V:4] c4A4G4 | 
[V:5] E,2F,4D,2E,4 | 
[V:1] z2A2_B2B2A4 | 
[V:2] d4z2d2d2d2 | 
[V:3] z12 | 
[V:4] A4G4F4 | 
[V:5] D,2D,2G,,2G,,2D,2D,2 | 
[V:1] z2d2d2c2d3c/B/ | 
[V:2] d2g2e2e2d4 | 
[V:3] z12 | 
[V:4] G4A4B4 | 
[V:5] G,,4z4G,4 | 
[V:1] AGA2E2A4G2 | 
[V:2] f3ec2f2d4 | 
[V:3] z12 | 
[V:4] c6A2B4 | 
[V:5] F,3G,A,2F,2G,4 | 
[V:1] A8G4- | 
[V:2] z2d2f4e4- | 
[V:3] F8C4- | 
[V:4] A8c4- | 
[V:5] D,8E,4- | 
[V:1] G4F8 | 
[V:2] e4d8 | 
[V:3] C4D8 | 
[V:4] c4A8 | 
[V:5] E,4F,8 | 
[V:1] G4z4G4- | 
[V:2] e6f2e2c2 | 
[V:3] z12 | 
[V:4] G4A4c4 | 
[V:5] C,6D,2C,2B,,A,, | 
[V:1] G2B3cd4B2 | 
[V:2] d4z2B3cd2 | 
[V:3] D12 | 
[V:4] B4G4B4 | 
[V:5] G,,12 | 
[V:1] A2c3BA2G2B2- | 
[V:2] e8d4 | 
[V:3] A8B4- | 
[V:4] c8G4- | 
[V:5] z4z4G,,4- | 
[V:1] Bcd2c2A3GF2 | 
[V:2] z2d2f2e2f3g | 
[V:3] B4A8 | 
[V:4] G4c4d4 | 
[V:5] G,,4A,,4D,4 | 
[V:1] E4z2A4^G2 | 
[V:2] a3ge2d2e4- | 
[V:3] z12 | 
[V:4] c6A2B4 | 
[V:5] A,,2A,3G,F,2E,4 | 
[V:1] A6c3BG2 | 
[V:2] e12 | 
[V:3] z4A4G4 | 
[V:4] A4c4c2c2 | 
[V:5] A,,4z2A,,2C,4 | 
[V:1] A4z2B4d2 | 
[V:2] f4e2d2g4 | 
[V:3] F4G8 | 
[V:4] c4B8 | 
[V:5] A,,4G,,8 | 
[V:1] c2A3BcdB4 | 
[V:2] e4f4g4 | 
[V:3] A8G4- | 
[V:4] c8d4- | 
[V:5] z4z4G,,4- | 
[V:1] G2B3cd4B2 | 
[V:2] z2G3AB2G4 | 
[V:3] G4B8 | 
[V:4] d4d8 | 
[V:5] G,,12 | 
[V:1] c2A4c3BAG | 
[V:2] E4F2E2e4 | 
[V:3] A8A4 | 
[V:4] c12 | 
[V:5] A,,4F,,2A,,3B,,C,2 | 
[V:1] F4G4z2G2 | 
[V:2] d6e2c4 | 
[V:3] A4G8 | 
[V:4] z4z4z2G2 | 
[V:5] D,4G,,2C,4E,2 | 
[V:1] F2A3GFED2G2 | 
[V:2] d4z4d2c2 | 
[V:3] z12 | 
[V:4] A4c4B4 | 
[V:5] D,3C,/B,,/A,,4z2G,,2 | 
[V:1] F2A3GG4^F2 | 
[V:2] f4d8 | 
[V:3] z12 | 
[V:4] z2A2B4A4 | 
[V:5] A,,2F,,2G,,2G,,2D,2D,2 | 
[V:1] G3FEDG4F2 | 
[V:2] d3cBAd4c2 | 
[V:3] z12 | 
[V:4] G4z2B4A2 | 
[V:5] G,,8z4 | 
[V:1] E2F3ED4^C2 | 
[V:2] B2d3cB2A4- | 
[V:3] z12 | 
[V:4] G2A3FG2E4 | 
[V:5] z2D,2D,2G,,2A,,4 | 
[V:1] D4z2D2E4- | 
[V:2] A4z4z4 | 
[V:3] F8G4 | 
[V:4] D4A4B4 | 
[V:5] z2D,4F,2E,4 | 
[V:1] E2F4D4A2 | 
[V:2] z4z4d4- | 
[V:3] A6G2F4 | 
[V:4] c6B2A4 | 
[V:5] C,2F,4G,2D,4 | 
[V:1] B2G4F2G4- | 
[V:2] d2c2A4e4- | 
[V:3] G4D4G4 | 
[V:4] G4z4z2G2- | 
[V:5] G,,4z4C,4- | 
[V:1] G4z4z4 | 
[V:2] e4d2c2A4- | 
[V:3] z4G4F4 | 
[V:4] G2c2d2e4d2- | 
[V:5] C,4B,,2C,2D,4 | 
[V:1] z12 | 
[V:2] A4z4z4 | 
[V:3] E4D4E4- | 
[V:4] d2c2d4B2c2- | 
[V:5] A,,4B,,2G,,4A,,2 | 
[V:1] z12 | 
[V:2] z12 | 
[V:3] E2F2G4E2F2- | 
[V:4] cBA2G2c4_B2- | 
[V:5] C,2D,2E,4C,2D,2- | 
[V:1] z4D4C2C2 | 
[V:2] z4z4z2A2 | 
[V:3] F2E4D2E2F2- | 
[V:4] B2A4G2A4 | 
[V:5] D,C,A,,2_B,,4A,,4 | 
[V:1] D3C/B,/C2D4^C2 | 
[V:2] F2G2A2G2A4- | 
[V:3] F2D2E2D2E4 | 
[V:4] z12 | 
[V:5] _B,,4A,,2B,,2A,,4 | 
[V:1] D12 | 
[V:2] A4z2A2A2B2 | 
[V:3] D8z4 | 
[V:4] z12 | 
[V:5] z2D,3E,F,2D,2G,2 | 
[V:1] z12 | 
[V:2] A2d4^c2d4 | 
[V:3] z12 | 
[V:4] z12 | 
[V:5] D,2F,2E,4z2D,2- | 
[V:1] z12 | 
[V:2] z2d2d2f4e2- | 
[V:3] z12 | 
[V:4] z12 | 
[V:5] D,2F,3E,D,C,B,,A,,C,2 | 
[V:1] z12 | 
[V:2] edc2B4A4 | 
[V:3] z12 | 
[V:4] z12 | 
[V:5] A,,2A,4G,2F,3E, | 
[V:1] z12 | 
[V:2] z2A2c3de2f2 | 
[V:3] z4A6F2 | 
[V:4] z12 | 
[V:5] C,D,2C,A,,4z2A,2- | 
[V:1] z12 | 
[V:2] e2f4e4d2 | 
[V:3] c2d2Bc2B2A/G/A2 | 
[V:4] z12 | 
[V:5] A,2D,2E,2G,2F,4 | 
[V:1] z4z4G4 | 
[V:2] e4z4e4 | 
[V:3] B4z4B4 | 
[V:4] z12 | 
[V:5] E,4z4E,4 | 
[V:1] G4G4G4- | 
[V:2] e4e4e4- | 
[V:3] B4B4B4- | 
[V:4] z12 | 
[V:5] E,4E,4E,4- | 
[V:1] G2G2G4A4 | 
[V:2] e2e2e4c4 | 
[V:3] B2B2B4A4 | 
[V:4] z12 | 
[V:5] E,2E,2E,4F,4 | 
[V:1] A4G4z2G2 | 
[V:2] d4e4z2e2 | 
[V:3] A4B4z2B2 | 
[V:4] z12 | 
[V:5] F,4E,4z2E,2 | 
[V:1] G4G4F2A2- | 
[V:2] e4e4c4 | 
[V:3] B4B4A4 | 
[V:4] z12 | 
[V:5] E,4E,4F,4 | 
[V:1] A2GFG2A4^G2 | 
[V:2] d4e8 | 
[V:3] A4B8 | 
[V:4] z12 | 
[V:5] F,4E,8 | 
[V:1] A4z4z4 | 
[V:2] e4z2e2e2e2 | 
[V:3] A4z2A2A2A2 | 
[V:4] z12 | 
[V:5] A,,4z2A,,2A,,2A,,2 | 
[V:1] z12 | 
[V:2] e2e2f4d4 | 
[V:3] G2G2F4G4 | 
[V:4] z12 | 
[V:5] C,2C,2D,4B,,4 | 
[V:1] z4z2D2D4 | 
[V:2] c4z2A2B4 | 
[V:3] A4z2F2F4 | 
[V:4] z12 | 
[V:5] A,,4z2D,2D,4 | 
[V:1] D4C4D2D2- | 
[V:2] B4A4F4 | 
[V:3] F4E4D4 | 
[V:4] z12 | 
[V:5] D,4A,,4B,,4 | 
[V:1] D2^CB,C4D4 | 
[V:2] A4A4A4 | 
[V:3] E4E4D4 | 
[V:4] z12 | 
[V:5] A,,4A,,4D,4 | 
[V:1] z2D2G4F4 | 
[V:2] z2A2c4A4 | 
[V:3] z2D2E4F4 | 
[V:4] z12 | 
[V:5] z2D,2C,4D,4 | 
[V:1] E2D4^C2D4 | 
[V:2] B4A4A4 | 
[V:3] G4E4D4 | 
[V:4] z12 | 
[V:5] G,,4A,,4D,,4 | 
[V:1] z2D2F4F4 | 
[V:2] z2A2d4A4 | 
[V:3] z2F2A4F4 | 
[V:4] z12 | 
[V:5] z2D,2D,4D,4 | 
[V:1] E8D4 | 
[V:2] c6A2A4- | 
[V:3] G6E2F4 | 
[V:4] z12 | 
[V:5] C,4C,4D,4 | 
[V:1] E4z2E2E2E2 | 
[V:2] A4z2c2c2c2 | 
[V:3] E4z2A2A2A2 | 
[V:4] z12 | 
[V:5] A,,4z2A,,2A,,2A,,2 | 
[V:1] E4z2D2E2F2- | 
[V:2] c4z2A2c4 | 
[V:3] G4z2F2G2A2- | 
[V:4] z12 | 
[V:5] C,4z2D,2C,2A,,2 | 
[V:1] FED4^C2D4- | 
[V:2] A4A4F4 | 
[V:3] A2F2E4D4 | 
[V:4] z12 | 
[V:5] D,4A,,4_B,,4 | 
[V:1] D4z4D4 | 
[V:2] F3ED2C2D4 | 
[V:3] z2F4A4G2 | 
[V:4] z12 | 
[V:5] _B,,6A,,2B,,4 | 
[V:1] C4D2D4^C2 | 
[V:2] z2A2F2G2A4 | 
[V:3] A2F4D2E2E2 | 
[V:4] z12 | 
[V:5] A,,4_B,,4A,,4 | 
[V:1] D2F3GA2 :
[V:2] [M:2/1]A4z2A2 | 
[V:3] D4z2D2 :
[V:4] F8- :
[V:5] D,8 :
[V:1] F4 [I:setbarnb 75]| 
[V:2] c2c2 :
[V:3] A3B/c/ | 
[V:4] F4 | 
[V:5] z4 | 
[V:1] z2F2- :
[V:2] A2_B2 | 
[V:3] d2dd- :
[V:4] F4 :
[V:5] D,2_B,,D,- :
[V:1] FDE2F2A2- [I:setbarnb 76]| 
[V:2] A2G2A2A2 | 
[V:3] dc/B/c2d4 | 
[V:4] z4F4 | 
[V:5] D,F,E,2D,4 | 
[V:1] ABc2zc3/B/A :
[V:2] A2AAc2A2 | 
[V:3] c3BA2F2 :
[V:4] E4C4 :
[V:5] A,,4A,,4 :
[V:1] DG2F [I:setbarnb 77]| 
[V:2] B2A2 :
[V:3] G2A3/B/ | 
[V:4] D4 | 
[V:5] G,,2D,2 | 
[V:1] G2E2 :
[V:2] G2zA | 
[V:3] cBc2 :
[V:4] E4- :
[V:5] z2A,,2- :
[V:1] C2D2C2c2- [I:setbarnb 78]| 
[V:2] EA2GA2zA | 
[V:3] C2z2C4 | 
[V:4] E2D2E4- | 
[V:5] A,,C,B,,2A,,4 | 
[V:1] c2c4A2 :
[V:2] c2A2c3/d/ef- | 
[V:3] C2c2Ac2A- :
[V:4] E4A4- :
[V:5] A,,2A,,3B,,C,D,- :
[V:1] A3B [I:setbarnb 79]| 
[V:2] fe2d :
[V:3] AEF2 | 
[V:4] A4 | 
[V:5] D,C,D,2 | 
[V:1] cc3/B/A/G/ :
[V:2] e2e2 | 
[V:3] E4 :
[V:4] A4- :
[V:5] A,,4 :
[V:1] FA3/B/c2A2G [I:setbarnb 80]| 
[V:2] d2c2c2B2 | 
[V:3] F2E2F2G2 | 
[V:4] A4z4 | 
[V:5] D,2A,,4E,2 | 
[V:1] A4F2F2 | 
[V:2] A2c2c2A2 | 
[V:3] D2z4d2 :
[V:4] F8 :
[V:5] F,2A,3G,F,2 :
[V:1] G4 [I:setbarnb 81]| 
[V:2] G2G2 :
[V:3] e4- | 
[V:4] C4 | 
[V:5] E,4 | 
[V:1] A2c2- :
[V:2] c2c2 | 
[V:3] e4 :
[V:4] C3D :
[V:5] A,,4 :
[V:1] cBG2A2G2- [I:setbarnb 82]| 
[V:2] c2B2A2B2 | 
[V:3] e4c2Be- | 
[V:4] E4F2G2 | 
[V:5] z4z4 | 
[V:1] GA2F2DEG :
[V:2] c2A2A2G2 | 
[V:3] ec2d2c/B/c2 :
[V:4] EF2D2FE2 :
[V:5] z8 :
[V:1] F3A- [I:setbarnb 83]| 
[V:2] A2c2 :
[V:3] d2c2 | 
[V:4] D2A2- | 
[V:5] z4 | 
[V:1] AG2^F :
[V:2] c2A2 | 
[V:3] A4 :
[V:4] ABc2 :
[V:5] z4 :
[V:1] G4z4 [I:setbarnb 84]| 
[V:2] G2G2c2c2 | 
[V:3] B4E2F2 | 
[V:4] d3cA4 | 
[V:5] G,,4A,,3B,, | 
[V:1] E4E3D/E/ :
[V:2] c2B2A2GA- | 
[V:3] EA2GA2E2 :
[V:4] z8 :
[V:5] C,D,E,2A,,2C,2 :
[V:1] FD2C [I:setbarnb 85]| 
[V:2] AG/F/E2 :
[V:3] z2G3/A/ | 
[V:4] z4 | 
[V:5] D,2E,2 | 
[V:1] D2E2 :
[V:2] D2G2 | 
[V:3] B/A/d2c :
[V:4] z4 :
[V:5] F,2E,2 :
[V:1] F2E2zECE- [I:setbarnb 86]| 
[V:2] A2c2B2G2 | 
[V:3] d2c2e4 | 
[V:4] A4G4- | 
[V:5] D,2A,,2E,4- | 
[V:1] E/F/G3/F/EDF3/E/D- :
[V:2] B2c2A4- | 
[V:3] E4z4 :
[V:4] G2E2F4 :
[V:5] E,2C,2D,4 :
[V:1] D^C/B,/C2 [I:setbarnb 87]| 
[V:2] A4- | 
[V:3] z2C2 | 
[V:4] E4 | 
[V:5] A,,4 | 
[V:1] D12 ||  
[V:2] A12 ||  
[V:3] F3E/D/D8 ||  
[V:4] D12 ||  
[V:5] D,12 ||  
[V:1]  [K:C] [K:clef=treble][M:2/1]A8- | 
[V:2]  [K:C] [K:clef=treble-8][M:2/1]e8- | 
[V:3]  [K:C] [K:clef=treble-8][M:2/1]c8 | 
[V:4]  [K:C] [K:clef=treble-8][M:2/1]C8- | 
[V:5]  [K:C] [K:clef=bass][M:2/1]A,,8- | 
[V:1] A4A4 | 
[V:2] e8 | 
[V:3] c8 | 
[V:4] C8 | 
[V:5] A,,8 | 
[V:1] F8 | 
[V:2] d8- | 
[V:3] _B6AG | 
[V:4] D8 | 
[V:5] _B,,8- | 
[V:1] F4F4 | 
[V:2] d8 | 
[V:3] F2D2d4 | 
[V:4] D8 | 
[V:5] B,,8 | 
[V:1] c8 | 
[V:2] e8 | 
[V:3] c4A4 | 
[V:4] A8- | 
[V:5] A,,8- | 
[V:1] z4A4- | 
[V:2] e4f4 | 
[V:3] c4d4 | 
[V:4] A8 | 
[V:5] A,,4F,,4 | 
[V:1] A4G4 | 
[V:2] d8 | 
[V:3] G4G4 | 
[V:4] B8 | 
[V:5] G,,4G,,4 | 
[V:1] A8 | 
[V:2] d6f2- | 
[V:3] F6D2- | 
[V:4] A8 | 
[V:5] D,8 | 
[V:1] z8 | 
[V:2] fed4c2 | 
[V:3] D2F2E4 | 
[V:4] A4G4 | 
[V:5] D,4E,4 | 
[V:1] z8 | 
[V:2] d6e2 | 
[V:3] D2F4E2 | 
[V:4] A4F2A2- | 
[V:5] F,2D,4C,2 | 
[V:1] z8 | 
[V:2] A2B3cd2- | 
[V:3] F4D4 | 
[V:4] A2GFG4 | 
[V:5] D,4B,,4 | 
[V:1] A8- | 
[V:2] d2^cB^c4 | 
[V:3] E8 | 
[V:4] A8- | 
[V:5] A,,8 | 
[V:1] A8- | 
[V:2] d8- | 
[V:3] D8- | 
[V:4] A8- | 
[V:5] F,8- | 
[V:1] A8 | 
[V:2] d8 | 
[V:3] D8- | 
[V:4] A8 | 
[V:5] F,8 | 
[V:1] _B8- | 
[V:2] d8- | 
[V:3] D8 | 
[V:4] F8 | 
[V:5] _B,,8- | 
[V:1] B8 | 
[V:2] d8 | 
[V:3] D4D4 | 
[V:4] G8 | 
[V:5] B,,8 | 
[V:1] c8 | 
[V:2] c4e4 | 
[V:3] E2F2E2A2- | 
[V:4] A8 | 
[V:5] A,,4A,,4 | 
[V:1] B4A4- | 
[V:2] e4c2f2 | 
[V:3] A2G2A3B | 
[V:4] z8 | 
[V:5] E,4F,3G, | 
[V:1] A4^G4 | 
[V:2] e2f2e4 | 
[V:3] c2d2B4 | 
[V:4] z8 | 
[V:5] A,2D,2E,4 | 
[V:1] A8 | 
[V:2] e6c2- | 
[V:3] A2GFE2F2- | 
[V:4] c6A2 | 
[V:5] A,,8 | 
[V:1] c4B4 | 
[V:2] c2A2B4 | 
[V:3] FGA2D2E2- | 
[V:4] A4G4 | 
[V:5] F,,4G,,4 | 
[V:1] c8 | 
[V:2] A8 | 
[V:3] EDCB,C4 | 
[V:4] E4F4 | 
[V:5] A,,8 | 
[V:1] B4G4 | 
[V:2] z4d4- | 
[V:3] D8- | 
[V:4] G8 | 
[V:5] G,,8 | 
[V:1] A8 | 
[V:2] d2cBA4 | 
[V:3] D8 | 
[V:4] F8 | 
[V:5] z8 | 
[V:1] G4GFED | 
[V:2] e4B2e2- | 
[V:3] z8 | 
[V:4] E8- | 
[V:5] C,4G,,2C,2- | 
[V:1] CDEFEDE2- | 
[V:2] edc2B4 | 
[V:3] z8 | 
[V:4] E8- | 
[V:5] C,B,,A,,4G,,2 | 
[V:1] ED^CB,C4 | 
[V:2] A8- | 
[V:3] C8 | 
[V:4] E8 | 
[V:5] A,,8 | 
[V:1] D8 | 
[V:2] A8 | 
[V:3] F8- | 
[V:4] D8- | 
[V:5] z8 | 
[V:1] z4A4- | 
[V:2] f6f2 | 
[V:3] F8 | 
[V:4] D8 | 
[V:5] z8 | 
[V:1] A2A2A4 | 
[V:2] f4f4 | 
[V:3] D8 | 
[V:4] z8 | 
[V:5] z8 | 
[V:1] G4A4 | 
[V:2] e4c2d2 | 
[V:3] z8 | 
[V:4] z8 | 
[V:5] z8 | 
[V:1] z4A4 | 
[V:2] A2d4c2 | 
[V:3] z8 | 
[V:4] z8 | 
[V:5] z8 | 
[V:1] F4F4 | 
[V:2] d3cBAd2- | 
[V:3] z8 | 
[V:4] z8 | 
[V:5] z8 | 
[V:1] E4E4 | 
[V:2] d2^cB^c4 | 
[V:3] z8 | 
[V:4] z8 | 
[V:5] z8 | 
[V:1] D8 | 
[V:2] d4z4 | 
[V:3] z8 | 
[V:4] z8 | 
[V:5] z8 | 
[V:1] z4D4 | 
[V:2] D4G4 | 
[V:3] z8 | 
[V:4] z8 | 
[V:5] z8 | 
[V:1] G4E2F2- | 
[V:2] E2e4d2- | 
[V:3] z8 | 
[V:4] z8 | 
[V:5] z8 | 
[V:1] FGA2F2_B2- | 
[V:2] d2c2d4- | 
[V:3] z8 | 
[V:4] z8 | 
[V:5] z8 | 
[V:1] B2A4G2 | 
[V:2] d2c2d2e2 | 
[V:3] z8 | 
[V:4] z8 | 
[V:5] z8 | 
[V:1] A2D4F2 | 
[V:2] f6d2- | 
[V:3] z8 | 
[V:4] z8 | 
[V:5] z8 | 
[V:1] E4E4 | 
[V:2] d2^cB^c4 | 
[V:3] z8 | 
[V:4] A4A4 | 
[V:5] A,,4A,,4 | 
[V:1] D8 | 
[V:2] d8 | 
[V:3] F4F4 | 
[V:4] A4A4 | 
[V:5] D,4D,4 | 
[V:1] z8 | 
[V:2] z8 | 
[V:3] D4D4 | 
[V:4] A4A4 | 
[V:5] F,4F,4 | 
[V:1] z8 | 
[V:2] z8 | 
[V:3] G4G4 | 
[V:4] B4c4 | 
[V:5] E,4E,4 | 
[V:1] z8 | 
[V:2] z8 | 
[V:3] A4G2_B2- | 
[V:4] d8 | 
[V:5] D,4G,,2D,2- | 
[V:1] z8 | 
[V:2] z8 | 
[V:3] B2A4G2 | 
[V:4] z4d4 | 
[V:5] D,2C,2B,,4 | 
[V:1] z8 | 
[V:2] z8 | 
[V:3] A4F2A2- | 
[V:4] c4A4 | 
[V:5] A,,2C,2D,2F,2- | 
[V:1] z8 | 
[V:2] z8 | 
[V:3] A2G2A4 | 
[V:4] c6_BA | 
[V:5] F,2E,2F,4 | 
[V:1] z8 | 
[V:2] z8 | 
[V:3] z2F4E2 | 
[V:4] _B4A4- | 
[V:5] z2D,4C,2 | 
[V:1] z8 | 
[V:2] z8 | 
[V:3] F2E4D2 | 
[V:4] A4G4 | 
[V:5] D,2A,,2B,,4 | 
[V:1] z8 | 
[V:2] z8 | 
[V:3] E4z2F2- | 
[V:4] A8 | 
[V:5] A,,3B,,C,2D,2- | 
[V:1] z8 | 
[V:2] z8 | 
[V:3] F2E2F2D2- | 
[V:4] z4A4 | 
[V:5] D,2C,2D,2F,2- | 
[V:1] z8 | 
[V:2] z8 | 
[V:3] DEF2E2F2 | 
[V:4] A4A4 | 
[V:5] F,E,D,2C,2D,2 | 
[V:1] z8 | 
[V:2] z8 | 
[V:3] E2F4E2 | 
[V:4] A8 | 
[V:5] A,,2D,4C,2 | 
[V:1] z8 | 
[V:2] z8 | 
[V:3] F4F4 | 
[V:4] _B4_B4 | 
[V:5] D,4D,4 | 
[V:1] z8 | 
[V:2] z8 | 
[V:3] E4z2A2- | 
[V:4] A8 | 
[V:5] A,,6A,,2 | 
[V:1] z8 | 
[V:2] z8 | 
[V:3] A2GFE2A2- | 
[V:4] z4A4 | 
[V:5] A,,4A,,4 | 
[V:1] z8 | 
[V:2] z8 | 
[V:3] ABcde2f2 | 
[V:4] c4B2A2- | 
[V:5] A,,8- | 
[V:1] z8 | 
[V:2] z8 | 
[V:3] e2d4^c2 | 
[V:4] A2F2E4 | 
[V:5] A,,8 | 
[V:1] z8 | 
[V:2] z8 | 
[V:3] d4z2d2 | 
[V:4] D4z2D2 | 
[V:5] _B,,4z2B,,2 | 
[V:1] z8 | 
[V:2] z8 | 
[V:3] d4d4 | 
[V:4] F4G4 | 
[V:5] _B,,4B,,4 | 
[V:1] z8 | 
[V:2] z8 | 
[V:3] c4z2c2 | 
[V:4] A4z2A2 | 
[V:5] A,,4z2A,,2 | 
[V:1] z8 | 
[V:2] z8 | 
[V:3] A4B4 | 
[V:4] c4d4 | 
[V:5] F,4D,4 | 
[V:1] z8 | 
[V:2] z8 | 
[V:3] c4z2c2 | 
[V:4] e4z2e2 | 
[V:5] C,4z2C,2 | 
[V:1] z8 | 
[V:2] z8 | 
[V:3] c2c2B4 | 
[V:4] e2e2d4 | 
[V:5] C,2C,2G,4 | 
[V:1] z8 | 
[V:2] z8 | 
[V:3] z2A2G2G2 | 
[V:4] z2d2d2^c2 | 
[V:5] z2D,2E,2E,2 | 
[V:1] A4A2A2 | 
[V:2] f4f4 | 
[V:3] A4F4 | 
[V:4] d8 | 
[V:5] D,8 | 
[V:1] G3AB2c2 | 
[V:2] e4e2e2 | 
[V:3] C4z2C2 | 
[V:4] z8 | 
[V:5] z8 | 
[V:1] B2A4GF | 
[V:2] d4d4 | 
[V:3] G2F2D4 | 
[V:4] z8 | 
[V:5] z8 | 
[V:1] E3FG2A2- | 
[V:2] c4c4 | 
[V:3] A3GE2F2 | 
[V:4] z8 | 
[V:5] z8 | 
[V:1] A2GFG4 | 
[V:2] B4B4 | 
[V:3] D4E4 | 
[V:4] z8 | 
[V:5] z8 | 
[V:1] A3GFEF2 | 
[V:2] A4z4 | 
[V:3] F6ED | 
[V:4] z8 | 
[V:5] D,8 | 
[V:1] GFEDC4 | 
[V:2] c4G4 | 
[V:3] C4z2C2 | 
[V:4] z8 | 
[V:5] E,4E,4 | 
[V:1] D4z4 | 
[V:2] A4c4 | 
[V:3] F4G2A2 | 
[V:4] z8 | 
[V:5] D,4E,2F,2 | 
[V:1] z8 | 
[V:2] c4d4 | 
[V:3] G2A4B2- | 
[V:4] z8 | 
[V:5] E,2F,4G,2- | 
[V:1] z4E4 | 
[V:2] d4c4 | 
[V:3] BAA4G2 | 
[V:4] z8 | 
[V:5] G,F,D,2E,4 | 
[V:1] F4E2A2- | 
[V:2] d4e4 | 
[V:3] A4A3G | 
[V:4] z8 | 
[V:5] D,4A,,4 | 
[V:1] A2F2E4 | 
[V:2] d4c4 | 
[V:3] F2D2A4 | 
[V:4] z8 | 
[V:5] z4A,,4 | 
[V:1] D4z2d2- | 
[V:2] d4d4 | 
[V:3] F4G4 | 
[V:4] z8 | 
[V:5] _B,,4G,,4 | 
[V:1] d2c2d2B2- | 
[V:2] A4d4 | 
[V:3] F4_B4 | 
[V:4] z8 | 
[V:5] z6G,2- | 
[V:1] B2G4A2- | 
[V:2] B4c4 | 
[V:3] G4z2c2- | 
[V:4] z8 | 
[V:5] G,2E,4F,2- | 
[V:1] A2F2G4 | 
[V:2] A4G4 | 
[V:3] c2d4c2 | 
[V:4] z8 | 
[V:5] F,2D,2E,4 | 
[V:1] F2F4E2 | 
[V:2] A4G4 | 
[V:3] d4B4 | 
[V:4] z8 | 
[V:5] D,4z4 | 
[V:1] F4D4 | 
[V:2] F4G4 | 
[V:3] A4z2D2 | 
[V:4] z8 | 
[V:5] D,4B,,4 | 
[V:1] C3DEFE2- | 
[V:2] A4c4 | 
[V:3] E2F2E2A2- | 
[V:4] z8 | 
[V:5] A,,4A,,3B,, | 
[V:1] E2D4^C2 | 
[V:2] A4A4 | 
[V:3] A2GFE4 | 
[V:4] z8 | 
[V:5] C,2D,2A,,4 | 
[V:1] D4F4- | 
[V:2] A8 | 
[V:3] D8 | 
[V:4] F8- | 
[V:5] D,8- | 
[V:1] F2G2A4 | 
[V:2] z4A4 | 
[V:3] z4D4 | 
[V:4] F8 | 
[V:5] D,8 | 
[V:1] F8 | 
[V:2] c4c4 | 
[V:3] A6Bc | 
[V:4] F8- | 
[V:5] z8 | 
[V:1] z4F4- | 
[V:2] A4_B4 | 
[V:3] d6d2- | 
[V:4] F8 | 
[V:5] D,4_B,,2D,2- | 
[V:1] F2D2E4 | 
[V:2] A4G4 | 
[V:3] d2^cB^c4 | 
[V:4] z8 | 
[V:5] D,2F,2E,4 | 
[V:1] F4A4- | 
[V:2] A4A4 | 
[V:3] d8 | 
[V:4] F8 | 
[V:5] D,8 | 
[V:1] A2B2c4 | 
[V:2] A4A4 | 
[V:3] c6B2 | 
[V:4] E8 | 
[V:5] A,,8 | 
[V:1] z2c3BA2 | 
[V:2] c4A4 | 
[V:3] A4F4 | 
[V:4] C8 | 
[V:5] A,,8 | 
[V:1] D2G4F2 | 
[V:2] B4A4 | 
[V:3] G4A3B | 
[V:4] D8 | 
[V:5] G,,4D,4 | 
[V:1] G4E4 | 
[V:2] G4z2A2 | 
[V:3] c2B2c4 | 
[V:4] E8- | 
[V:5] z4A,,4- | 
[V:1] C4D4 | 
[V:2] E2A4^G2 | 
[V:3] C4z4 | 
[V:4] E4D4 | 
[V:5] A,,2C,2B,,4 | 
[V:1] C4c4- | 
[V:2] A4z2A2 | 
[V:3] C8 | 
[V:4] E8- | 
[V:5] A,,8 | 
[V:1] c8- | 
[V:2] c4A4 | 
[V:3] C4c4 | 
[V:4] E8 | 
[V:5] A,,4A,,4- | 
[V:1] c4A4 | 
[V:2] c3de2f2- | 
[V:3] A2c4A2- | 
[V:4] A8- | 
[V:5] A,,2B,,2C,2D,2- | 
[V:1] A6B2 | 
[V:2] f2e4d2 | 
[V:3] A2E2F4 | 
[V:4] A8 | 
[V:5] D,2C,2D,4 | 
[V:1] c2c3BAG | 
[V:2] e4e4 | 
[V:3] E8 | 
[V:4] A8- | 
[V:5] A,,8 | 
[V:1] F2A3Bc2- | 
[V:2] d4c4 | 
[V:3] F4E4 | 
[V:4] A8 | 
[V:5] D,4A,,4- | 
[V:1] c2A4G2 | 
[V:2] c4B4 | 
[V:3] F4G4 | 
[V:4] z8 | 
[V:5] A,,4E,4 | 
[V:1] A8 | 
[V:2] A4c4 | 
[V:3] D4z4 | 
[V:4] F8- | 
[V:5] F,4A,4- | 
[V:1] F8 | 
[V:2] c4A4 | 
[V:3] z4d4 | 
[V:4] F8 | 
[V:5] A,2G,2F,4 | 
[V:1] G8 | 
[V:2] G4G4 | 
[V:3] e8- | 
[V:4] C8 | 
[V:5] E,8 | 
[V:1] A4c4- | 
[V:2] c4c4 | 
[V:3] e8 | 
[V:4] C6D2 | 
[V:5] A,,8 | 
[V:1] c2B2G4 | 
[V:2] c4B4 | 
[V:3] e8 | 
[V:4] E8 | 
[V:5] z8 | 
[V:1] A4G4- | 
[V:2] A4B4 | 
[V:3] c4B2e2- | 
[V:4] F4G4 | 
[V:5] z8 | 
[V:1] G2A4F2- | 
[V:2] c4A4 | 
[V:3] e2c4d2- | 
[V:4] E2F4D2- | 
[V:5] z8 | 
[V:1] F2D2E2G2 | 
[V:2] A4G4 | 
[V:3] d2^cB^c4 | 
[V:4] D2F2E4 | 
[V:5] z8 | 
[V:1] F6A2- | 
[V:2] A4c4 | 
[V:3] d4c4 | 
[V:4] D4A4- | 
[V:5] z8 | 
[V:1] AG^FEF4 | 
[V:2] c4A4 | 
[V:3] A8 | 
[V:4] A2B2c4 | 
[V:5] z8 | 
[V:1] G8 | 
[V:2] G4G4 | 
[V:3] B8 | 
[V:4] d6c2 | 
[V:5] G,,8 | 
[V:1] z8 | 
[V:2] c4c4 | 
[V:3] E4F4 | 
[V:4] A8 | 
[V:5] A,,6B,,2 | 
[V:1] E8 | 
[V:2] c4B4 | 
[V:3] E2A4G2 | 
[V:4] z8 | 
[V:5] C,2D,2E,4 | 
[V:1] E6DE | 
[V:2] A4G2A2- | 
[V:3] A4E4 | 
[V:4] z8 | 
[V:5] A,,4C,4 | 
[V:1] F2D4C2 | 
[V:2] AGF2E4 | 
[V:3] z4G3A | 
[V:4] z8 | 
[V:5] D,4E,4 | 
[V:1] D4E4 | 
[V:2] D4G4 | 
[V:3] BAd4c2 | 
[V:4] z8 | 
[V:5] F,4E,4 | 
[V:1] F4E4 | 
[V:2] A4c4 | 
[V:3] d4c4 | 
[V:4] A8 | 
[V:5] D,4A,,4 | 
[V:1] z2E2C2E2- | 
[V:2] B4G4 | 
[V:3] e8 | 
[V:4] G8- | 
[V:5] E,8 | 
[V:1] EFG3FE2 | 
[V:2] B4c4 | 
[V:3] E8 | 
[V:4] G4E4 | 
[V:5] E,4C,4 | 
[V:1] D2F3ED2- | 
[V:2] A8- | 
[V:3] z8 | 
[V:4] F8 | 
[V:5] D,8 | 
[V:1] D2^CB,C4 | 
[V:2] A8 | 
[V:3] z4C4 | 
[V:4] E8 | 
[V:5] A,,8 | 
[V:1] [M:3/3](3D4z4D4 | 
[V:2] [M:3/3](3z4z4A4 | 
[V:3] [M:3/3](3:2:2F8F4 | 
[V:4] [M:3/3]D8 | 
[V:5] [M:3/3](3D,4z4D,4 | 
[V:1] (3:2:2D8D4 | 
[V:2] (3:2:2B8B4 | 
[V:3] (3:2:2G8G4 | 
[V:4] z8 | 
[V:5] (3:2:2G,,8G,,4 | 
[V:1] (3:2:2E8E4 | 
[V:2] (3:2:2c8c4 | 
[V:3] (3:2:2E8E4 | 
[V:4] (3:2:2G8G4 | 
[V:5] (3:2:2C,8C,4 | 
[V:1] (3:2:1D4F4(3:2:1G2 | 
[V:2] (3:2:2d8c4- | 
[V:3] (3F4D4E4 | 
[V:4] (3:2:2D8z4 | 
[V:5] (3:2:2_B,,8B,,4 | 
[V:1] (3:2:2A8G4 | 
[V:2] (3:2:2c4e8 | 
[V:3] (3:2:2E8E4 | 
[V:4] (3c4A4B4 | 
[V:5] (3:2:2A,,8A,,4 | 
[V:1] (3:2:2A8A4 | 
[V:2] (3:2:2d8A4 | 
[V:3] (3:2:2F8F4 | 
[V:4] (3A4z4d4 | 
[V:5] (3D,4D,4D,4 | 
[V:1] (3:2:2A8A4 | 
[V:2] (3A4z4A4 | 
[V:3] (3:2:2F8F4 | 
[V:4] (3:2:2d8d4 | 
[V:5] (3:2:2D,8D,4 | 
[V:1] (3:2:2A8A4 | 
[V:2] (3:2:2e8e4 | 
[V:3] (3:2:2E8E4 | 
[V:4] (3:2:2c8A4 | 
[V:5] (3:2:2A,,8A,,4 | 
[V:1] (3:2:2E8E4 | 
[V:2] (3:2:2c8c4 | 
[V:3] (3:2:2E8E4 | 
[V:4] (3:2:2G8G4 | 
[V:5] (3:2:2C,8C,4 | 
[V:1] (3:2:2D8D4 | 
[V:2] (3d4f4g4 | 
[V:3] (3:2:2F8D4 | 
[V:4] (3:2:2D8D4 | 
[V:5] (3:2:2_B,,8B,,4 | 
[V:1] C4(3:2:2B,2A,4 | 
[V:2] (3:2:2e8z4 | 
[V:3] E4(3:2:2D2C4 | 
[V:4] A4(3:2:2G2F4 | 
[V:5] (3:2:2A,,8A,,4 | 
[V:1] D4(3^C2C2B,2 | 
[V:2] (3:2:2z4A8 | 
[V:3] (3:2:2B,4C8 | 
[V:4] (3:2:2G4E8 | 
[V:5] (3:2:2G,,4A,,8 | 
[V:1] D8- | 
[V:2] (3:2:2A8A4 | 
[V:3] (3:2:2F8D4 | 
[V:4] D8- | 
[V:5] D,,8- | 
[V:1] D8- | 
[V:2] A8- | 
[V:3] F4(3:2:2G2A4 | 
[V:4] D8- | 
[V:5] D,,8- | 
[V:1] D8 |]  
[V:2] A8 |]  
[V:3] D8 |]  
[V:4] D8 |]  
[V:5] D,,8 |]  



